assets/svg/1f1ef-1f1f2.svg

<svg xmlns="http://www.w3.org/2000/svg" viewBox="0 0 64 64" enable-background="new 0 0 64 64"><g fill="#699635"><path d="m53.13 10.699c-11.695-11.6-30.561-11.6-42.26 0l21.13 16.254 21.13-16.254"/><path d="m10.871 53.3c11.695 11.599 30.561 11.599 42.26 0l-21.13-16.254-21.13 16.254"/></g><g fill="#3e4347"><path d="M58.01,46.962c5.32-9.233,5.32-20.689,0-29.924L38.561,32L58.01,46.962z"/><path d="M5.988,17.038c-5.318,9.234-5.318,20.69,0,29.924L25.438,32L5.988,17.038z"/></g><path fill="#ffe62e" d="m53.13 10.699l-21.13 16.253-21.13-16.253c-1.895 1.88-3.535 4.01-4.879 6.342l19.446 14.959-19.444 14.959c1.344 2.329 2.982 4.463 4.879 6.342l21.13-16.254 21.13 16.254c1.896-1.879 3.537-4.01 4.881-6.342l-19.445-14.959 19.445-14.959c-1.342-2.328-2.983-4.462-4.879-6.342"/></svg>

<svg xmlns="http://www.w3.org/2000/svg" width="64" height="64" viewBox="0 0 64 64"><path fill="#699635" d="M53.127 10.699c-11.695-11.6-30.561-11.6-42.256 0L32 26.953l21.127-16.254zM10.871 53.301c11.695 11.599 30.561 11.599 42.256 0L32 37.047 10.871 53.301z"/><path fill="#3E4347" d="M58.01 46.962c5.32-9.233 5.32-20.689 0-29.924L38.561 32 58.01 46.962zM5.988 17.038c-5.318 9.234-5.318 20.69 0 29.924L25.438 32 5.988 17.038z"/><path fill="#FFE62E" d="M53.127 10.699L32 26.952 10.871 10.699a30.197 30.197 0 0 0-4.879 6.342L25.438 32 5.994 46.959a30.079 30.079 0 0 0 4.879 6.342L32 37.047l21.125 16.254a30.121 30.121 0 0 0 4.881-6.342L38.561 32l19.445-14.959a30.097 30.097 0 0 0-4.879-6.342z"/></svg>
